projects/samara/images/icons/shield.svg

<svg width="71" height="71" viewBox="0 0 71 71" fill="none" xmlns="http://www.w3.org/2000/svg">
<g clip-path="url(#clip0_72_107)">
<path d="M35.5 20.8008C27.4713 20.8008 20.9395 27.3326 20.9395 35.3613C20.9395 43.39 27.4713 49.9219 35.5 49.9219C43.5287 49.9219 50.0605 43.39 50.0605 35.3613C50.0605 27.3326 43.5288 20.8008 35.5 20.8008ZM45.2912 32.6721L34.1975 43.7658C33.7913 44.1718 33.2589 44.375 32.7266 44.375C32.1942 44.375 31.6618 44.1718 31.2558 43.7657L25.7089 38.2188C24.8966 37.4066 24.8966 36.0895 25.7089 35.2772C26.5211 34.465 27.8382 34.465 28.6506 35.2772L32.7266 39.3533L42.3496 29.7303C43.1618 28.9181 44.4789 28.9181 45.2912 29.7303C46.1035 30.5426 46.1035 31.8597 45.2912 32.6721Z" fill="#171818"/>
<path d="M60.4609 11.0937C52.0742 11.0937 44.1893 7.82774 38.259 1.89744L36.9709 0.609316C36.1588 -0.203163 34.8416 -0.202885 34.0292 0.609316L32.741 1.89744C26.8107 7.82774 18.9259 11.0937 10.5391 11.0937C9.3903 11.0937 8.45898 12.0251 8.45898 13.1738V33.9222C8.45898 50.6004 19.0537 65.4552 34.8226 70.8867C35.0421 70.9623 35.2709 71 35.5 71C35.7291 71 35.958 70.9623 36.1774 70.8867C51.9463 65.4552 62.541 50.6002 62.541 33.9222V13.1738C62.541 12.0251 61.6097 11.0937 60.4609 11.0937ZM35.5 54.082C25.1774 54.082 16.7793 45.6839 16.7793 35.3613C16.7793 25.0387 25.1774 16.6406 35.5 16.6406C45.8226 16.6406 54.2207 25.0387 54.2207 35.3613C54.2207 45.6839 45.8227 54.082 35.5 54.082Z" fill="#171818"/>
</g>
<defs>
<clipPath id="clip0_72_107">
<rect width="71" height="71" fill="white"/>
</clipPath>
</defs>
</svg>

<svg width="71" height="71" fill="none" xmlns="http://www.w3.org/2000/svg"><g clip-path="url(#clip0_72_107)" fill="#171818"><path d="M35.5 20.8c-8.029 0-14.56 6.533-14.56 14.561 0 8.029 6.531 14.56 14.56 14.56s14.56-6.531 14.56-14.56c0-8.028-6.531-14.56-14.56-14.56zm9.791 11.872L34.198 43.766c-.407.406-.94.609-1.471.609a2.073 2.073 0 01-1.471-.61l-5.547-5.546a2.08 2.08 0 112.942-2.942l4.076 4.076 9.623-9.623a2.08 2.08 0 012.941 2.942z"/><path d="M60.46 11.094c-8.386 0-16.27-3.266-22.201-9.197L36.971.61a2.08 2.08 0 00-2.942 0l-1.288 1.288c-5.93 5.93-13.815 9.197-22.202 9.197a2.08 2.08 0 00-2.08 2.08v20.748c0 16.678 10.595 31.533 26.364 36.965a2.08 2.08 0 001.354 0c15.77-5.432 26.364-20.287 26.364-36.965V13.174a2.08 2.08 0 00-2.08-2.08zM35.5 54.082c-10.323 0-18.72-8.398-18.72-18.72 0-10.323 8.397-18.721 18.72-18.721 10.323 0 18.72 8.398 18.72 18.72 0 10.323-8.397 18.721-18.72 18.721z"/></g><defs><clipPath id="clip0_72_107"><path fill="#fff" d="M0 0h71v71H0z"/></clipPath></defs></svg>
